icons/bold-16.svg

<svg xmlns="http://www.w3.org/2000/svg" width="16" height="16" viewBox="0 0 16 16">
  <defs/>
  <path d="M4,2 L8.5,2 C9.81,2 11.011,2.731 11.612,3.896 C12.212,5.06 12.112,6.463 11.352,7.53 C12.678,8.356 13.295,9.961 12.865,11.463 C12.435,12.965 11.062,14 9.5,14 L4,14 C3.448,14 3,13.552 3,13 L3,3 C3,2.448 3.448,2 4,2 Z M5,9 L5,12 L9.5,12 C10.328,12 11,11.328 11,10.5 C11,9.672 10.328,9 9.5,9 Z M8.5,7 C9.328,7 10,6.328 10,5.5 C10,4.672 9.328,4 8.5,4 L5,4 L5,7 Z"/>
</svg>

<svg xmlns="http://www.w3.org/2000/svg" width="16" height="16" viewBox="0 0 16 16"><path d="M4 2h4.5a3.501 3.501 0 012.852 5.53A3.499 3.499 0 019.5 14H4a1 1 0 01-1-1V3a1 1 0 011-1zm1 7v3h4.5a1.5 1.5 0 000-3zm3.5-2a1.5 1.5 0 000-3H5v3z"/></svg>
